X: 28658
T: Musical Priest, The
R: reel
M: 4/4
K: Gminor
GF|:DG ~G2 G2 GB|AGFd cAGF|DG ~G2 GFGB|1 AGFA G2 GF:|2 AGFA G2 GA||
|:B2 BA BdcB|AFcF dF c2|BAGA Bcdg|fdcA G2 GA:|
|:BG ~G2 gfdg|fdcA BG ~G2|BG ~G2 gfdg|1 fdcA G2 GA:|2 fdcA G4||

